flaticon/interaction/server-19.svg

<svg xmlns="http://www.w3.org/2000/svg" width="32" height="32" viewBox="0 0 24 24">
    <path d="M 19.199219 14.398438 C 16.554688 14.398438 14.398438 16.554688 14.398438 19.199219 C 14.398438 21.847656 16.554688 24 19.199219 24 C 21.847656 24 24 21.847656 24 19.199219 C 24 16.554688 21.847656 14.398438 19.199219 14.398438 Z M 19.199219 23.199219 C 16.996094 23.199219 15.199219 21.40625 15.199219 19.199219 C 15.199219 16.996094 16.996094 15.199219 19.199219 15.199219 C 21.40625 15.199219 23.199219 16.996094 23.199219 19.199219 C 23.199219 21.40625 21.40625 23.199219 19.199219 23.199219 Z M 19.199219 23.199219"/>
    <path d="M21.601562 18.800781L19.601562 18.800781 19.601562 16.800781C19.601562 16.578125 19.421875 16.398438 19.199219 16.398438 18.980469 16.398438 18.800781 16.578125 18.800781 16.800781L18.800781 19.199219C18.800781 19.421875 18.980469 19.601562 19.199219 19.601562L21.601562 19.601562C21.820312 19.601562 22 19.421875 22 19.199219 22 18.980469 21.820312 18.800781 21.601562 18.800781zM4.199219 2.398438C3.207031 2.398438 2.398438 3.207031 2.398438 4.199219 2.398438 5.191406 3.207031 6 4.199219 6 5.191406 6 6 5.191406 6 4.199219 6 3.207031 5.191406 2.398438 4.199219 2.398438zM4.199219 5.199219C3.648438 5.199219 3.199219 4.75 3.199219 4.199219 3.199219 3.648438 3.648438 3.199219 4.199219 3.199219 4.75 3.199219 5.199219 3.648438 5.199219 4.199219 5.199219 4.75 4.75 5.199219 4.199219 5.199219zM20.398438 3.601562C20.398438 3.820312 20.222656 4 20 4 19.777344 4 19.601562 3.820312 19.601562 3.601562 19.601562 3.378906 19.777344 3.199219 20 3.199219 20.222656 3.199219 20.398438 3.378906 20.398438 3.601562zM18.800781 3.601562C18.800781 3.820312 18.621094 4 18.398438 4 18.179688 4 18 3.820312 18 3.601562 18 3.378906 18.179688 3.199219 18.398438 3.199219 18.621094 3.199219 18.800781 3.378906 18.800781 3.601562zM21.199219 4.800781C21.199219 5.019531 21.019531 5.199219 20.800781 5.199219 20.578125 5.199219 20.398438 5.019531 20.398438 4.800781 20.398438 4.578125 20.578125 4.398438 20.800781 4.398438 21.019531 4.398438 21.199219 4.578125 21.199219 4.800781zM19.601562 4.800781C19.601562 5.019531 19.421875 5.199219 19.199219 5.199219 18.980469 5.199219 18.800781 5.019531 18.800781 4.800781 18.800781 4.578125 18.980469 4.398438 19.199219 4.398438 19.421875 4.398438 19.601562 4.578125 19.601562 4.800781zM17.199219 3.601562C17.199219 3.820312 17.019531 4 16.800781 4 16.578125 4 16.398438 3.820312 16.398438 3.601562 16.398438 3.378906 16.578125 3.199219 16.800781 3.199219 17.019531 3.199219 17.199219 3.378906 17.199219 3.601562zM18 4.800781C18 5.019531 17.820312 5.199219 17.601562 5.199219 17.378906 5.199219 17.199219 5.019531 17.199219 4.800781 17.199219 4.578125 17.378906 4.398438 17.601562 4.398438 17.820312 4.398438 18 4.578125 18 4.800781zM15.601562 3.601562C15.601562 3.820312 15.421875 4 15.199219 4 14.980469 4 14.800781 3.820312 14.800781 3.601562 14.800781 3.378906 14.980469 3.199219 15.199219 3.199219 15.421875 3.199219 15.601562 3.378906 15.601562 3.601562zM16.398438 4.800781C16.398438 5.019531 16.222656 5.199219 16 5.199219 15.777344 5.199219 15.601562 5.019531 15.601562 4.800781 15.601562 4.578125 15.777344 4.398438 16 4.398438 16.222656 4.398438 16.398438 4.578125 16.398438 4.800781zM14 3.601562C14 3.820312 13.820312 4 13.601562 4 13.378906 4 13.199219 3.820312 13.199219 3.601562 13.199219 3.378906 13.378906 3.199219 13.601562 3.199219 13.820312 3.199219 14 3.378906 14 3.601562zM14.800781 4.800781C14.800781 5.019531 14.621094 5.199219 14.398438 5.199219 14.179688 5.199219 14 5.019531 14 4.800781 14 4.578125 14.179688 4.398438 14.398438 4.398438 14.621094 4.398438 14.800781 4.578125 14.800781 4.800781zM14.800781 4.800781"/>
    <path d="M 24 6.558594 L 24 1.84375 C 24 0.828125 23.171875 0 22.15625 0 L 1.84375 0 C 0.828125 0 0 0.828125 0 1.84375 L 0 6.554688 C 0 7.144531 0.28125 7.660156 0.710938 8 C 0.28125 8.339844 0 8.855469 0 9.441406 L 0 14.15625 C 0 14.742188 0.28125 15.261719 0.710938 15.601562 C 0.28125 15.9375 0 16.457031 0 17.042969 L 0 21.757812 C 0 22.773438 0.828125 23.601562 1.84375 23.601562 L 11.199219 23.601562 L 11.199219 22.800781 L 1.84375 22.800781 C 1.269531 22.800781 0.800781 22.332031 0.800781 21.757812 L 0.800781 17.042969 C 0.800781 16.46875 1.269531 16 1.84375 16 L 12.800781 16 L 12.800781 15.199219 L 1.84375 15.199219 C 1.269531 15.199219 0.800781 14.730469 0.800781 14.15625 L 0.800781 9.441406 C 0.800781 8.867188 1.269531 8.398438 1.84375 8.398438 L 22.15625 8.398438 C 22.730469 8.398438 23.199219 8.867188 23.199219 9.441406 L 23.199219 12.398438 L 24 12.398438 L 24 9.441406 C 24 8.855469 23.71875 8.335938 23.289062 8 C 23.71875 7.660156 24 7.144531 24 6.558594 Z M 1.84375 7.601562 C 1.269531 7.601562 0.800781 7.132812 0.800781 6.558594 L 0.800781 1.84375 C 0.800781 1.269531 1.269531 0.800781 1.84375 0.800781 L 22.15625 0.800781 C 22.730469 0.800781 23.199219 1.269531 23.199219 1.84375 L 23.199219 6.554688 C 23.199219 7.132812 22.730469 7.601562 22.15625 7.601562 Z M 1.84375 7.601562"/>
    <path d="M2.398438 11.800781C2.398438 12.792969 3.207031 13.601562 4.199219 13.601562 5.191406 13.601562 6 12.792969 6 11.800781 6 10.808594 5.191406 10 4.199219 10 3.207031 10 2.398438 10.808594 2.398438 11.800781zM5.199219 11.800781C5.199219 12.351562 4.75 12.800781 4.199219 12.800781 3.648438 12.800781 3.199219 12.351562 3.199219 11.800781 3.199219 11.25 3.648438 10.800781 4.199219 10.800781 4.75 10.800781 5.199219 11.25 5.199219 11.800781zM20.398438 11.199219C20.398438 11.421875 20.222656 11.601562 20 11.601562 19.777344 11.601562 19.601562 11.421875 19.601562 11.199219 19.601562 10.980469 19.777344 10.800781 20 10.800781 20.222656 10.800781 20.398438 10.980469 20.398438 11.199219zM18.800781 11.199219C18.800781 11.421875 18.621094 11.601562 18.398438 11.601562 18.179688 11.601562 18 11.421875 18 11.199219 18 10.980469 18.179688 10.800781 18.398438 10.800781 18.621094 10.800781 18.800781 10.980469 18.800781 11.199219zM21.199219 12.398438C21.199219 12.621094 21.019531 12.800781 20.800781 12.800781 20.578125 12.800781 20.398438 12.621094 20.398438 12.398438 20.398438 12.179688 20.578125 12 20.800781 12 21.019531 12 21.199219 12.179688 21.199219 12.398438zM19.601562 12.398438C19.601562 12.621094 19.421875 12.800781 19.199219 12.800781 18.980469 12.800781 18.800781 12.621094 18.800781 12.398438 18.800781 12.179688 18.980469 12 19.199219 12 19.421875 12 19.601562 12.179688 19.601562 12.398438zM17.199219 11.199219C17.199219 11.421875 17.019531 11.601562 16.800781 11.601562 16.578125 11.601562 16.398438 11.421875 16.398438 11.199219 16.398438 10.980469 16.578125 10.800781 16.800781 10.800781 17.019531 10.800781 17.199219 10.980469 17.199219 11.199219zM18 12.398438C18 12.621094 17.820312 12.800781 17.601562 12.800781 17.378906 12.800781 17.199219 12.621094 17.199219 12.398438 17.199219 12.179688 17.378906 12 17.601562 12 17.820312 12 18 12.179688 18 12.398438zM15.601562 11.199219C15.601562 11.421875 15.421875 11.601562 15.199219 11.601562 14.980469 11.601562 14.800781 11.421875 14.800781 11.199219 14.800781 10.980469 14.980469 10.800781 15.199219 10.800781 15.421875 10.800781 15.601562 10.980469 15.601562 11.199219zM16.398438 12.398438C16.398438 12.621094 16.222656 12.800781 16 12.800781 15.777344 12.800781 15.601562 12.621094 15.601562 12.398438 15.601562 12.179688 15.777344 12 16 12 16.222656 12 16.398438 12.179688 16.398438 12.398438zM14 11.199219C14 11.421875 13.820312 11.601562 13.601562 11.601562 13.378906 11.601562 13.199219 11.421875 13.199219 11.199219 13.199219 10.980469 13.378906 10.800781 13.601562 10.800781 13.820312 10.800781 14 10.980469 14 11.199219zM14.800781 12.398438C14.800781 12.621094 14.621094 12.800781 14.398438 12.800781 14.179688 12.800781 14 12.621094 14 12.398438 14 12.179688 14.179688 12 14.398438 12 14.621094 12 14.800781 12.179688 14.800781 12.398438zM2.398438 19.398438C2.398438 20.390625 3.207031 21.199219 4.199219 21.199219 5.191406 21.199219 6 20.390625 6 19.398438 6 18.40625 5.191406 17.601562 4.199219 17.601562 3.207031 17.601562 2.398438 18.40625 2.398438 19.398438zM5.199219 19.398438C5.199219 19.953125 4.75 20.398438 4.199219 20.398438 3.648438 20.398438 3.199219 19.953125 3.199219 19.398438 3.199219 18.847656 3.648438 18.398438 4.199219 18.398438 4.75 18.398438 5.199219 18.847656 5.199219 19.398438zM5.199219 19.398438"/>
</svg>

<svg xmlns="http://www.w3.org/2000/svg" width="32" height="32" viewBox="0 0 24 24">
    <path d="M19.2 14.398a4.81 4.81 0 0 0-4.802 4.801c0 2.649 2.157 4.801 4.801 4.801C21.848 24 24 21.848 24 19.2c0-2.645-2.152-4.802-4.8-4.802zm0 8.801c-2.204 0-4-1.793-4-4 0-2.203 1.796-4 4-4 2.206 0 4 1.797 4 4 0 2.207-1.794 4-4 4zm0 0"/>
    <path d="M21.602 18.8h-2v-2a.401.401 0 0 0-.8 0l-.001 2.4c0 .222.18.402.398.402h2.403a.401.401 0 0 0 0-.801zm0 0M4.2 2.398c-.993 0-1.802.809-1.802 1.801C2.398 5.191 3.207 6 4.2 6 5.191 6 6 5.191 6 4.2c0-.993-.809-1.802-1.8-1.802zm0 2.801c-.552 0-1-.449-1-1 0-.55.448-1 1-1 .55 0 1 .45 1 1 0 .551-.45 1-1 1zm0 0M20.398 3.602a.398.398 0 1 1-.796 0 .398.398 0 1 1 .796 0zm0 0M18.8 3.602A.401.401 0 1 1 18 3.597a.401.401 0 0 1 .802.005zm0 0M21.2 4.8a.4.4 0 1 1-.801-.003.4.4 0 0 1 .8.004zm0 0M19.602 4.8a.401.401 0 1 1-.802-.004.401.401 0 0 1 .802.005zm0 0M17.2 3.602a.4.4 0 1 1-.801-.004.4.4 0 0 1 .8.004zm0 0M18 4.8a.4.4 0 1 1-.8-.003.4.4 0 0 1 .8.004zm0 0M15.602 3.602a.401.401 0 1 1-.802-.005.401.401 0 0 1 .802.005zm0 0M16.398 4.8a.398.398 0 1 1-.796 0 .398.398 0 1 1 .796 0zm0 0M14 3.602a.4.4 0 1 1-.8-.004.4.4 0 0 1 .8.004zm0 0M14.8 4.8A.401.401 0 1 1 14 4.797a.401.401 0 0 1 .802.005zm0 0"/>
    <path d="M24 6.559V1.844A1.847 1.847 0 0 0 22.156 0H1.844A1.847 1.847 0 0 0 0 1.844v4.71C0 7.145.281 7.66.71 8 .282 8.34 0 8.855 0 9.441v4.715c0 .586.281 1.106.71 1.446-.429.335-.71.855-.71 1.441v4.715c0 1.015.828 1.844 1.844 1.844h9.355V22.8H1.844A1.045 1.045 0 0 1 .8 21.758v-4.715C.8 16.469 1.27 16 1.844 16H12.8v-.8H1.844A1.045 1.045 0 0 1 .8 14.155V9.441c0-.574.469-1.043 1.043-1.043h20.312c.574 0 1.043.47 1.043 1.043v2.957H24V9.441c0-.586-.281-1.105-.71-1.441.429-.34.71-.855.71-1.441zM1.844 7.602A1.045 1.045 0 0 1 .8 6.559V1.844C.8 1.27 1.27.8 1.844.8h20.312c.574 0 1.043.469 1.043 1.043v4.71c0 .579-.469 1.048-1.043 1.048zm0 0"/>
    <path d="M2.398 11.8c0 .993.809 1.802 1.801 1.802.992 0 1.801-.809 1.801-1.801C6 10.809 5.191 10 4.2 10c-.993 0-1.802.809-1.802 1.8zm2.801 0c0 .552-.449 1-1 1-.55 0-1-.448-1-1 0-.55.45-1 1-1 .551 0 1 .45 1 1zm0 0M20.398 11.2a.398.398 0 1 1-.796 0 .398.398 0 1 1 .796 0zm0 0M18.8 11.2a.401.401 0 1 1 0 0zm0 0M21.2 12.398a.401.401 0 1 1-.803.003.401.401 0 0 1 .802-.003zm0 0M19.602 12.398a.401.401 0 1 1 0 0zm0 0M17.2 11.2a.401.401 0 1 1-.803.002.401.401 0 0 1 .802-.003zm0 0M18 12.398a.401.401 0 1 1-.802.003.401.401 0 0 1 .802-.003zm0 0M15.602 11.2a.401.401 0 1 1 0 0zm0 0M16.398 12.398a.398.398 0 1 1-.796 0 .398.398 0 1 1 .796 0zm0 0M14 11.2a.401.401 0 1 1-.802.002.401.401 0 0 1 .802-.003zm0 0M14.8 12.398a.401.401 0 1 1 0 0zm0 0M2.398 19.398c0 .993.809 1.801 1.801 1.801.992 0 1.801-.808 1.801-1.8a1.8 1.8 0 0 0-3.602 0zm2.801 0A1 1 0 1 1 3.2 19.4a1 1 0 0 1 2-.002zm0 0"/>
</svg>
